src/assets/images/homepage/partner-6.svg

<svg width="166" height="30" viewBox="0 0 166 30" fill="none" xmlns="http://www.w3.org/2000/svg">
<g id="Vector">
<path d="M40.0118 1.44396H44.1563V23.233H50.9758V26.8646H40.0118V1.44396Z" fill="#726BEA"/>
<path d="M58.8067 27.2277C56.7722 27.2277 55.2149 26.6709 54.1348 25.5572C53.0547 24.4435 52.5147 22.8699 52.5147 20.8362V7.47228C52.5147 5.43863 53.0547 3.86497 54.1348 2.75131C55.2149 1.63764 56.7722 1.08081 58.8067 1.08081C60.8413 1.08081 62.3986 1.63764 63.4787 2.75131C64.5587 3.86497 65.0988 5.43863 65.0988 7.47228V20.8362C65.0988 22.8699 64.5587 24.4435 63.4787 25.5572C62.3986 26.6709 60.8413 27.2277 58.8067 27.2277ZM58.8067 23.5962C60.2385 23.5962 60.9544 22.7609 60.9544 21.0904V7.21807C60.9544 5.54757 60.2385 4.71232 58.8067 4.71232C57.375 4.71232 56.6591 5.54757 56.6591 7.21807V21.0904C56.6591 22.7609 57.375 23.5962 58.8067 23.5962Z" fill="#726BEA"/>
<path d="M73.7792 27.2277C71.7698 27.2277 70.2376 26.683 69.1826 25.5935C68.1276 24.4799 67.6002 22.8941 67.6002 20.8362V7.47228C67.6002 5.41442 68.1276 3.84076 69.1826 2.75131C70.2376 1.63764 71.7698 1.08081 73.7792 1.08081C75.7887 1.08081 77.3208 1.63764 78.3758 2.75131C79.4308 3.84076 79.9583 5.41442 79.9583 7.47228V9.65118H76.0398V7.21807C76.0398 5.54757 75.324 4.71232 73.8922 4.71232C72.4606 4.71232 71.7447 5.54757 71.7447 7.21807V21.1268C71.7447 22.7731 72.4606 23.5962 73.8922 23.5962C75.324 23.5962 76.0398 22.7731 76.0398 21.1268V16.1516H73.9676V12.5201H79.9583V20.8362C79.9583 22.8941 79.4308 24.4799 78.3758 25.5935C77.3208 26.683 75.7887 27.2277 73.7792 27.2277Z" fill="#726BEA"/>
<path d="M88.6098 27.2277C86.5752 27.2277 85.0179 26.6709 83.9379 25.5572C82.8578 24.4435 82.3177 22.8699 82.3177 20.8362V7.47228C82.3177 5.43863 82.8578 3.86497 83.9379 2.75131C85.0179 1.63764 86.5752 1.08081 88.6098 1.08081C90.6444 1.08081 92.2017 1.63764 93.2817 2.75131C94.3619 3.86497 94.9019 5.43863 94.9019 7.47228V20.8362C94.9019 22.8699 94.3619 24.4435 93.2817 25.5572C92.2017 26.6709 90.6444 27.2277 88.6098 27.2277ZM88.6098 23.5962C90.0415 23.5962 90.7574 22.7609 90.7574 21.0904V7.21807C90.7574 5.54757 90.0415 4.71232 88.6098 4.71232C87.1781 4.71232 86.4622 5.54757 86.4622 7.21807V21.0904C86.4622 22.7609 87.1781 23.5962 88.6098 23.5962Z" fill="#726BEA"/>
<path d="M97.7126 1.44396H101.857V26.8646H97.7126V1.44396Z" fill="#4F46E5"/>
<path d="M104.961 1.44396H111.064C113.124 1.44396 114.669 1.97658 115.699 3.04183C116.729 4.10707 117.244 5.66862 117.244 7.72648V10.2322C117.244 12.2901 116.729 13.8516 115.699 14.9169C114.669 15.9821 113.124 16.5147 111.064 16.5147H109.106V26.8646H104.961V1.44396ZM111.064 12.8832C111.743 12.8832 112.245 12.7016 112.572 12.3385C112.924 11.9753 113.099 11.358 113.099 10.4864V7.47228C113.099 6.60071 112.924 5.98335 112.572 5.6202C112.245 5.25705 111.743 5.07548 111.064 5.07548H109.106V12.8832H111.064Z" fill="#4F46E5"/>
<path d="M125.029 27.2277C123.021 27.2277 121.501 26.683 120.47 25.5935C119.441 24.4799 118.926 22.8941 118.926 20.8362V19.3836H122.844V21.1268C122.844 22.7731 123.56 23.5962 124.992 23.5962C125.695 23.5962 126.222 23.4025 126.574 23.0152C126.951 22.6036 127.139 21.9499 127.139 21.0541C127.139 19.9889 126.888 19.0568 126.386 18.2579C125.884 17.4347 124.954 16.4542 123.597 15.3163C121.89 13.8637 120.697 12.5564 120.018 11.3943C119.341 10.208 119.001 8.87646 119.001 7.39965C119.001 5.39021 119.528 3.84076 120.583 2.75131C121.639 1.63764 123.171 1.08081 125.181 1.08081C127.164 1.08081 128.659 1.63764 129.664 2.75131C130.694 3.84076 131.208 5.41442 131.208 7.47228V8.52542H127.29V7.21807C127.29 6.34651 127.115 5.71704 126.763 5.32968C126.411 4.91811 125.896 4.71232 125.218 4.71232C123.836 4.71232 123.146 5.52336 123.146 7.14544C123.146 8.06542 123.397 8.92488 123.899 9.72381C124.426 10.5227 125.368 11.4911 126.725 12.629C128.458 14.0816 129.651 15.4011 130.305 16.5874C130.957 17.7737 131.284 19.1657 131.284 20.7636C131.284 22.8457 130.744 24.4435 129.664 25.5572C128.609 26.6709 127.064 27.2277 125.029 27.2277Z" fill="#4F46E5"/>
<path d="M139.689 27.2277C137.679 27.2277 136.147 26.683 135.092 25.5935C134.037 24.4799 133.51 22.8941 133.51 20.8362V1.44396H137.654V21.1268C137.654 21.9983 137.83 22.6278 138.182 23.0152C138.558 23.4025 139.086 23.5962 139.764 23.5962C140.442 23.5962 140.957 23.4025 141.309 23.0152C141.685 22.6278 141.874 21.9983 141.874 21.1268V1.44396H145.867V20.8362C145.867 22.8941 145.34 24.4799 144.285 25.5935C143.23 26.683 141.698 27.2277 139.689 27.2277Z" fill="#4F46E5"/>
<path d="M148.819 1.44396H154.735L157.372 19.6378H157.447L160.085 1.44396H166V26.8646H162.081V7.61754H162.007L158.992 26.8646H155.525L152.511 7.61754H152.437V26.8646H148.819V1.44396Z" fill="#4F46E5"/>
<path d="M0 26.8646C5.09877 26.8646 9.2321 22.8806 9.2321 17.9662C9.2321 13.0517 5.09877 9.06775 0 9.06775V15.2966C1.52962 15.2966 2.76962 16.4918 2.76962 17.9662C2.76962 19.4405 1.52962 20.6357 0 20.6357V26.8646Z" fill="#726BEA"/>
<path d="M30.7737 12.0339C29.1961 11.5522 27.5161 11.2923 25.773 11.2923C16.6377 11.2923 9.23213 18.4303 9.23213 27.2353C9.23213 28.1191 9.30675 28.9861 9.45019 29.8307H19.7275C19.3607 29.0379 19.1567 28.1596 19.1567 27.2353C19.1567 23.7133 22.1189 20.8581 25.773 20.8581C27.7701 20.8581 29.5606 21.711 30.7737 23.0595V12.0339Z" fill="#A5B4FC"/>
<path d="M1.62318 0.169312C2.38858 6.84305 8.25881 12.0339 15.3869 12.0339C22.5148 12.0339 28.3851 6.84305 29.1504 0.169312H19.247C18.6356 1.64661 17.1376 2.69052 15.3869 2.69052C13.636 2.69052 12.1381 1.64661 11.5266 0.169312H1.62318Z" fill="#4F46E5"/>
</g>
</svg>

<svg xmlns="http://www.w3.org/2000/svg" width="166" height="30" fill="none"><path fill="#726BEA" d="M40.012 1.444h4.144v21.789h6.82v3.632H40.012zM58.807 27.228q-3.052 0-4.672-1.67-1.62-1.671-1.62-4.722V7.472q0-3.05 1.62-4.72 1.62-1.671 4.672-1.671t4.672 1.67q1.62 1.671 1.62 4.721v13.364q0 3.051-1.62 4.721t-4.672 1.67m0-3.632q2.147 0 2.147-2.506V7.218q0-2.506-2.147-2.506-2.148 0-2.148 2.506V21.09q0 2.505 2.148 2.506M73.78 27.228q-3.015 0-4.597-1.635-1.583-1.67-1.583-4.757V7.472q0-3.087 1.583-4.72 1.583-1.671 4.596-1.671 3.015 0 4.597 1.67 1.582 1.635 1.582 4.721v2.18H76.04V7.217q0-2.505-2.148-2.506-2.147 0-2.147 2.506v13.909q0 2.47 2.147 2.47 2.148 0 2.148-2.47v-4.975h-2.072V12.52h5.99v8.316q0 3.087-1.582 4.758-1.582 1.634-4.597 1.634M88.61 27.228q-3.052 0-4.672-1.67-1.62-1.671-1.62-4.722V7.472q0-3.05 1.62-4.72 1.62-1.671 4.672-1.671t4.672 1.67q1.62 1.671 1.62 4.721v13.364q0 3.051-1.62 4.721t-4.672 1.67m0-3.632q2.147 0 2.147-2.506V7.218q0-2.506-2.147-2.506-2.148 0-2.148 2.506V21.09q0 2.505 2.148 2.506"/><path fill="#4F46E5" d="M97.713 1.444h4.144v25.42h-4.144zM104.961 1.444h6.103q3.09 0 4.635 1.598t1.545 4.684v2.506q0 3.087-1.545 4.685t-4.635 1.598h-1.958v10.35h-4.145zm6.103 11.44q1.018 0 1.508-.546.528-.544.527-1.852V7.472q0-1.307-.527-1.852-.49-.545-1.508-.545h-1.958v7.808zM125.029 27.228q-3.012 0-4.559-1.635-1.544-1.67-1.544-4.757v-1.452h3.918v1.743q0 2.47 2.148 2.47 1.054 0 1.582-.582.565-.617.565-1.96 0-1.599-.753-2.797-.753-1.235-2.789-2.942-2.56-2.178-3.579-3.922-1.016-1.78-1.017-3.994 0-3.015 1.582-4.649 1.583-1.67 4.598-1.67 2.975 0 4.483 1.67 1.545 1.635 1.544 4.721v1.053h-3.918V7.218q0-1.307-.527-1.888-.528-.618-1.545-.618-2.073 0-2.072 2.433 0 1.38.753 2.579.79 1.198 2.826 2.905 2.6 2.18 3.58 3.958.978 1.78.979 4.177 0 3.123-1.62 4.793-1.582 1.67-4.635 1.67M139.689 27.228q-3.015 0-4.597-1.635-1.582-1.67-1.582-4.757V1.444h4.144v19.683q0 1.306.528 1.888.564.58 1.582.581 1.017 0 1.545-.58.564-.582.565-1.89V1.445h3.993v19.392q0 3.087-1.582 4.758-1.582 1.634-4.596 1.634M148.819 1.444h5.916l2.637 18.194h.075l2.638-18.194H166v25.42h-3.919V7.619h-.074l-3.015 19.247h-3.467l-3.014-19.247h-.074v19.247h-3.618z"/><path fill="#726BEA" d="M0 26.865c5.099 0 9.232-3.984 9.232-8.899S5.1 9.068 0 9.068v6.229c1.53 0 2.77 1.195 2.77 2.67S1.53 20.635 0 20.635z"/><path fill="#A5B4FC" d="M30.774 12.034a17.1 17.1 0 0 0-5.001-.742c-9.135 0-16.54 7.138-16.54 15.943q.001 1.327.217 2.596h10.278a6.2 6.2 0 0 1-.571-2.596c0-3.522 2.962-6.377 6.616-6.377 1.997 0 3.788.853 5 2.201z"/><path fill="#4F46E5" d="M1.623.17C2.39 6.842 8.26 12.033 15.387 12.033S28.385 6.843 29.15.169h-9.903c-.611 1.478-2.11 2.522-3.86 2.522s-3.249-1.044-3.86-2.522z"/></svg>
